material/.icons/material/home-remove.svg

<svg xmlns="http://www.w3.org/2000/svg" viewBox="0 0 24 24"><path d="M12 3L2 12h3v8h14v-8h3L12 3m3.54 13.12l-1.42 1.42L12 15.41l-2.12 2.13-1.41-1.42L10.59 14l-2.12-2.12 1.41-1.41L12 12.59l2.12-2.12 1.42 1.41L13.41 14l2.13 2.12z"/></svg>

<?xml version="1.0" encoding="UTF-8"?><!DOCTYPE svg PUBLIC "-//W3C//DTD SVG 1.1//EN" "http://www.w3.org/Graphics/SVG/1.1/DTD/svg11.dtd"><svg xmlns="http://www.w3.org/2000/svg" xmlns:xlink="http://www.w3.org/1999/xlink" version="1.1" id="mdi-home-remove" width="24" height="24" viewBox="0 0 24 24"><path d="M12 3L2 12H5V20H19V12H22L12 3M15.54 16.12L14.12 17.54L12 15.41L9.88 17.54L8.47 16.12L10.59 14L8.47 11.88L9.88 10.47L12 12.59L14.12 10.47L15.54 11.88L13.41 14L15.54 16.12Z" /></svg>
